app/images/open-etherscan.svg

<?xml version="1.0" encoding="UTF-8"?>
<svg width="16px" height="16px" viewBox="0 0 16 16" version="1.1" xmlns="http://www.w3.org/2000/svg" xmlns:xlink="http://www.w3.org/1999/xlink">
    <!-- Generator: Sketch 50.2 (55047) - http://www.bohemiancoding.com/sketch -->
    <title>open-etherscan</title>
    <desc>Created with Sketch.</desc>
    <defs></defs>
    <g id="Extension-(mobile-form-factor)" stroke="none" stroke-width="1" fill="none" fill-rule="evenodd">
        <g id="open-etherscan" fill="#FFFFFF">
            <path d="M3.00020312,0 C2.44821175,0 2.00021875,0.447993 2.00021875,0.999984375 C2.00021875,1.55197575 2.44821175,1.99996875 3.00020312,1.99996875 L12.5860533,1.99996875 L0.293245418,14.2927767 C-0.0977484727,14.6837706 -0.0977484727,15.3157607 0.293245418,15.7067546 C0.488242371,15.9017515 0.744238371,15.99975 1.00023437,15.99975 C1.25623037,15.99975 1.51222637,15.9017515 1.70722332,15.7067546 L14.0000312,3.41394666 L14.0000312,12.9997969 C14.0000312,13.5517883 14.4480242,13.9997813 15.0000156,13.9997813 C15.552007,13.9997813 16,13.5517883 16,12.9997969 L16,0 L3.00020312,0 Z"></path>
        </g>
    </g>
</svg>

<svg height="16" viewBox="0 0 16 16" width="16" xmlns="http://www.w3.org/2000/svg"><path d="m3.00020312 0c-.55199137 0-.99998437.447993-.99998437.99998438 0 .55199137.447993.99998437.99998437.99998437h9.58585018l-12.29280788 12.29280795c-.39099389.3909939-.39099389 1.022984 0 1.4139779.19499695.1949969.45099295.2929954.70698895.2929954s.511992-.0979985.70698895-.2929954l12.29280788-12.29280794v9.58585024c0 .5519914.447993.9999844.9999844.9999844s.9999844-.447993.9999844-.9999844v-12.9997969z" fill="#fff" fill-rule="evenodd"/></svg>
